X: 6483
T: Cat In The Hopper, The
R: jig
M: 6/8
K: Gdorian
C|:DGA B2c|AFE FGA|G3 g2e|fdc d2e|
fag fed|dcA B2c|d_ed d2c|1 dBG G2C:|2 dBG G2g||
|:geg gab|agf f2a|gag gfe|fdc d2e|
fag fed|dcA B2c|d_ed d2c|1 dBG G2g:|2 dBG G2C||

